telier/img/file.svg

<svg width="15" height="15" viewBox="0 0 15 15" fill="none" xmlns="http://www.w3.org/2000/svg">
<g clip-path="url(#clip0_400_791)">
<path d="M14.0031 2.52772C13.3593 1.88383 12.5032 1.52925 11.5926 1.52925C10.6821 1.52925 9.82602 1.88383 9.18213 2.52772L3.80834 7.90147C3.01086 8.69894 3.01086 9.99654 3.80838 10.7941C4.60591 11.5916 5.90355 11.5915 6.70102 10.794L10.2396 7.25549C10.5058 6.98922 10.5058 6.55755 10.2396 6.29129C9.97333 6.02502 9.54162 6.02502 9.27536 6.29129L5.73683 9.82982C5.47102 10.0957 5.03844 10.0957 4.77258 9.82986C4.50673 9.56401 4.50673 9.13143 4.77254 8.86562L10.1463 3.49196C10.5327 3.10566 11.0463 2.89289 11.5926 2.89289C12.139 2.89289 12.6526 3.10566 13.0389 3.49196C13.8364 4.28948 13.8364 5.58708 13.039 6.3846L7.18315 12.2403C5.85391 13.5695 3.69121 13.5694 2.36211 12.2403C1.71822 11.5965 1.3636 10.7404 1.3636 9.82986C1.3636 8.9193 1.71822 8.06319 2.36211 7.4193L8.21784 1.56348C8.48411 1.29721 8.48411 0.865543 8.21784 0.599279C7.95162 0.333059 7.51991 0.333014 7.25364 0.599279L1.39791 6.4551C0.496439 7.35653 0 8.55504 0 9.82986C0 11.1047 0.496439 12.3032 1.39791 13.2046C2.32843 14.1351 3.5503 14.6003 4.77258 14.6002C5.99459 14.6001 7.21701 14.1349 8.14734 13.2046L14.0032 7.34876C15.3323 6.01957 15.3323 3.85691 14.0031 2.52772Z" fill="#333333"/>
</g>
<defs>
<clipPath id="clip0_400_791">
<rect width="15" height="15" fill="white"/>
</clipPath>
</defs>
</svg>

<svg width="15" height="15" fill="none" xmlns="http://www.w3.org/2000/svg"><g clip-path="url(#clip0_400_791)"><path d="M14.003 2.528a3.386 3.386 0 00-2.41-.999c-.91 0-1.767.355-2.41.999L3.807 7.9a2.048 2.048 0 000 2.893 2.048 2.048 0 002.893 0l3.539-3.539a.682.682 0 00-.965-.964L5.737 9.83a.683.683 0 01-.964-.964l5.373-5.374c.387-.386.9-.6 1.447-.6a2.048 2.048 0 011.446 3.492L7.183 12.24a3.413 3.413 0 01-4.82 0 3.386 3.386 0 01-1-2.41c0-.91.355-1.767 1-2.41l5.855-5.857A.682.682 0 107.254.6L1.398 6.455A4.741 4.741 0 000 9.83a4.74 4.74 0 001.398 3.375A4.757 4.757 0 004.773 14.6a4.759 4.759 0 003.374-1.395l5.856-5.856a3.413 3.413 0 000-4.821z" fill="#333"/></g><defs><clipPath id="clip0_400_791"><path fill="#fff" d="M0 0h15v15H0z"/></clipPath></defs></svg>
